assets/img/helikon-logo-sign-fill.svg

<svg width="64" height="64" viewBox="0 0 64 64" fill="none" xmlns="http://www.w3.org/2000/svg">
<circle cx="32" cy="32" r="26" fill="white"/>
<path fill-rule="evenodd" clip-rule="evenodd" d="M30.2964 5.01941C28.3834 5.185 27.0284 5.39864 25.5109 5.77382C17.9787 7.63628 11.5621 12.7138 8.00257 19.6283C6.27297 22.9881 5.3218 26.381 5.04313 30.1852C4.9574 31.3557 5.00525 33.8141 5.13567 34.9381C5.85948 41.1771 8.54448 46.7466 12.9432 51.1332C17.296 55.474 22.7422 58.095 29.0046 58.863C30.4945 59.0457 33.504 59.0457 34.9939 58.863C37.022 58.6143 38.6656 58.25 40.484 57.646C50.3437 54.3715 57.4472 45.7529 58.7982 35.4259C59.0402 33.5761 59.068 30.8381 58.8628 29.0704C58.2958 24.1866 56.5536 19.7599 53.6647 15.8627C52.215 13.9071 50.0859 11.7793 48.1227 10.3241C44.2122 7.4254 39.8319 5.70628 34.8764 5.1252C34.1256 5.03719 30.9412 4.96361 30.2964 5.01941ZM33.5553 6.27498C42.0459 6.80653 49.6534 11.4147 54.0527 18.6913C57.7845 24.8637 58.7478 32.1909 56.7458 39.1748C56.5262 39.941 55.9357 41.632 55.8596 41.7126C55.8458 41.7272 51.1123 37.0264 45.3408 31.2664C37.3565 23.2982 34.7668 20.7471 34.5112 20.5985C33.6714 20.1105 32.9701 19.9215 31.9993 19.9215C31.0284 19.9215 30.3271 20.1105 29.4874 20.5985C29.2318 20.7471 26.642 23.2982 18.6578 31.2664C12.8863 37.0264 8.15277 41.7272 8.13897 41.7126C8.06287 41.632 7.47229 39.941 7.25268 39.1748C5.25028 32.1896 6.21402 24.8652 9.94849 18.6866C12.2862 14.8189 15.5616 11.6619 19.5284 9.45298C23.7827 7.08396 28.6962 5.97074 33.5553 6.27498ZM32.8507 21.2439C33.2259 21.3356 33.6477 21.5289 33.9957 21.7684C34.1733 21.8906 35.4747 23.1481 36.8877 24.5628L39.4568 27.1349L38.3557 28.2263C37.2185 29.3533 37.0187 29.5119 36.5925 29.6251C36.3566 29.6878 36.3267 29.6813 36.0934 29.517C35.3292 28.9787 34.1837 29.2314 33.1443 30.1678C32.7015 30.5666 32.506 30.6513 32.0241 30.6531C31.5727 30.6548 31.5597 30.6487 30.8674 30.1097C30.2104 29.5982 29.2826 29.4514 28.4762 29.7312C27.9297 29.9208 27.4723 30.2925 26.2743 31.5206C25.693 32.1164 25.126 32.6507 25.0145 32.7079C24.9029 32.765 24.6462 32.8251 24.444 32.8413C23.8514 32.8888 23.6407 32.7508 22.384 31.492L21.3122 30.4184L25.6429 26.1001C30.1337 21.622 30.1948 21.5667 30.9114 21.3271C31.5136 21.1259 32.2408 21.0947 32.8507 21.2439ZM51.4915 42.1583C49.8643 43.7863 49.7074 43.9036 49.1509 43.9075C48.512 43.912 48.5167 43.9156 46.3852 41.8038C45.3033 40.7319 44.3079 39.786 44.1732 39.7018C43.3359 39.1781 42.1631 39.1772 41.3161 39.6996C41.1814 39.7828 40.0407 40.8749 38.7812 42.1266C37.5217 43.3784 36.4015 44.4474 36.292 44.5023C36.0485 44.6243 35.5168 44.6407 35.1994 44.536C35.0097 44.4734 34.3769 43.8745 31.9112 41.4235C28.6988 38.2304 28.709 38.2392 27.9794 38.0505C27.5647 37.9432 27.2442 37.9362 26.8203 38.0254C26.2258 38.1503 25.9145 38.3491 25.1195 39.1113C24.4502 39.7529 24.3278 39.8454 24.0336 39.9308C23.6494 40.0424 23.2993 40.0134 22.9712 39.8426C22.8502 39.7797 21.5359 38.5118 20.0505 37.0252L17.3498 34.3221L18.8463 32.8258C19.6694 32.0028 20.3651 31.3294 20.3922 31.3294C20.4194 31.3294 20.9613 31.8548 21.5964 32.4969C22.5968 33.5082 22.8027 33.6883 23.1361 33.844C23.9278 34.2135 24.7203 34.2151 25.5294 33.8484C25.8635 33.6971 26.0766 33.5129 27.1799 32.4219C27.9266 31.6836 28.5492 31.1173 28.6962 31.0429C29.2653 30.7545 29.7554 30.8245 30.2762 31.2687C31.4057 32.2318 32.8022 32.1945 33.9567 31.1704C34.5489 30.6452 35.2436 30.3532 35.3793 30.5727C35.4013 30.6082 35.5548 30.7004 35.7204 30.7775C36.2863 31.0407 37.0847 30.9147 37.8075 30.4478C38.0101 30.317 38.6687 29.7232 39.2712 29.1284L40.3666 28.0468L46.6767 34.3546L52.9868 40.6624L51.4915 42.1583ZM19.2262 38.0089C20.7451 39.5203 22.0843 40.8146 22.2021 40.8852C23.0165 41.3725 24.133 41.3817 24.9531 40.9079C25.0984 40.824 25.508 40.4729 25.8632 40.1278C26.2185 39.7827 26.5964 39.456 26.7031 39.4018C26.9812 39.2605 27.4272 39.2218 27.7555 39.3105C28.015 39.3806 28.2585 39.6075 31.0304 42.3613C32.8824 44.2011 34.1323 45.3981 34.3061 45.4983C35.1652 45.9935 36.2689 45.9991 37.0664 45.5124C37.189 45.4375 38.339 44.3452 39.622 43.0848C40.905 41.8244 42.0466 40.7441 42.1588 40.6841C42.4525 40.5272 43.0508 40.5357 43.3658 40.7013C43.4998 40.7717 44.496 41.7023 45.6264 42.8129C47.3895 44.545 47.6926 44.8186 47.9999 44.955C48.729 45.2789 49.4945 45.2798 50.2312 44.9577C50.5384 44.8234 50.7924 44.5965 52.2136 43.1878L53.8438 41.5719L54.5477 42.2734C54.9348 42.6593 55.2516 43.0078 55.2516 43.0479C55.2516 43.1565 54.5915 44.4001 54.0902 45.2359C50.3839 51.4152 44.1319 55.8391 37.1371 57.2319C35.2864 57.6005 33.9282 57.7328 31.9993 57.7328C30.0703 57.7328 28.7122 57.6005 26.8614 57.2319C20.4242 55.9502 14.5751 52.0836 10.7897 46.6079C9.97385 45.4278 8.71787 43.2148 8.75868 43.0293C8.77718 42.9451 16.3625 35.2608 16.4272 35.2608C16.4477 35.2608 17.7072 36.4974 19.2262 38.0089Z" fill="#111212"/>
</svg>

<svg width="64" height="64" fill="none" xmlns="http://www.w3.org/2000/svg"><circle cx="32" cy="32" r="26" fill="#fff"/><path fill-rule="evenodd" clip-rule="evenodd" d="M30.296 5.02c-1.913.165-3.268.379-4.785.754-7.532 1.862-13.949 6.94-17.508 13.854-1.73 3.36-2.681 6.753-2.96 10.557-.086 1.17-.038 3.63.093 4.753.723 6.24 3.408 11.809 7.807 16.195 4.353 4.341 9.8 6.962 16.062 7.73 1.49.183 4.499.183 5.989 0 2.028-.249 3.672-.613 5.49-1.217a27.08 27.08 0 0 0 18.314-22.22c.242-1.85.27-4.588.065-6.356-.567-4.883-2.31-9.31-5.198-13.207-1.45-1.956-3.58-4.084-5.542-5.539-3.91-2.899-8.291-4.618-13.247-5.199-.75-.088-3.935-.161-4.58-.106Zm3.26 1.255a25.746 25.746 0 0 1 20.497 12.416c3.732 6.173 4.695 13.5 2.693 20.484-.22.766-.81 2.457-.886 2.538-.014.014-4.748-4.687-10.52-10.447-7.984-7.968-10.573-10.519-10.829-10.667-.84-.489-1.54-.677-2.512-.677-.97 0-1.672.188-2.512.677-.255.148-2.845 2.7-10.83 10.667-5.77 5.76-10.504 10.461-10.518 10.447-.076-.081-.667-1.772-.886-2.538-2.003-6.985-1.039-14.31 2.695-20.488a25.819 25.819 0 0 1 9.58-9.234 25.671 25.671 0 0 1 14.027-3.178Zm-.705 14.969c.375.092.797.285 1.145.524.177.123 1.479 1.38 2.892 2.795l2.569 2.572-1.101 1.091c-1.138 1.127-1.337 1.286-1.764 1.4-.235.062-.265.055-.499-.109-.764-.538-1.91-.286-2.949.65-.442.4-.638.484-1.12.486-.451.002-.464-.004-1.157-.543-.657-.512-1.584-.659-2.39-.379-.547.19-1.005.561-2.203 1.79-.581.595-1.148 1.13-1.26 1.187-.111.057-.368.117-.57.133-.593.048-.803-.09-2.06-1.349l-1.072-1.074 4.33-4.318c4.492-4.478 4.553-4.533 5.27-4.773a3.65 3.65 0 0 1 1.939-.083Zm18.64 20.914c-1.627 1.628-1.784 1.746-2.34 1.75-.639.004-.634.008-2.766-2.104-1.082-1.072-2.077-2.018-2.212-2.102-.837-.524-2.01-.525-2.857-.002-.135.083-1.275 1.175-2.535 2.427-1.26 1.251-2.38 2.32-2.489 2.375-.244.122-.775.139-1.093.034-.19-.063-.822-.662-3.288-3.113C28.7 38.23 28.71 38.24 27.98 38.05a2.315 2.315 0 0 0-1.159-.025c-.594.125-.905.324-1.7 1.086-.67.642-.792.734-1.086.82-.385.111-.735.082-1.063-.088-.12-.063-1.435-1.331-2.92-2.818l-2.701-2.703 1.496-1.496c.823-.823 1.52-1.497 1.546-1.497.027 0 .57.526 1.204 1.168 1 1.011 1.207 1.191 1.54 1.347.792.37 1.584.371 2.393.004.334-.15.548-.335 1.65-1.426.748-.738 1.37-1.305 1.517-1.38.57-.288 1.06-.218 1.58.227 1.13.963 2.526.925 3.68-.099.593-.525 1.288-.817 1.423-.597.022.035.176.127.341.204.566.264 1.365.138 2.087-.33.203-.13.862-.724 1.464-1.319l1.096-1.081 6.31 6.308 6.31 6.307-1.495 1.496Zm-32.265-4.15c1.52 1.512 2.858 2.807 2.976 2.877.814.488 1.931.497 2.751.023.145-.084.555-.435.91-.78.355-.345.733-.672.84-.726.278-.142.724-.18 1.053-.092.259.07.503.297 3.274 3.051 1.852 1.84 3.102 3.037 3.276 3.137.86.495 1.963.501 2.76.014.123-.075 1.273-1.167 2.556-2.427 1.283-1.26 2.425-2.34 2.537-2.4.294-.158.892-.15 1.207.016.134.07 1.13 1.001 2.26 2.112 1.764 1.732 2.067 2.006 2.374 2.142a2.69 2.69 0 0 0 2.231.003c.307-.135.561-.361 1.983-1.77l1.63-1.616.704.701c.387.386.704.735.704.775 0 .108-.66 1.352-1.162 2.188-3.706 6.18-9.958 10.603-16.953 11.996-1.85.368-3.209.5-5.138.5-1.929 0-3.287-.132-5.138-.5-6.437-1.282-12.286-5.148-16.071-10.624-.816-1.18-2.072-3.393-2.031-3.579.018-.084 7.604-7.768 7.668-7.768.02 0 1.28 1.236 2.8 2.748Z" fill="#111212"/></svg>
